src/assets/duotone/LampCharge.svg

<svg width="24" height="24" viewBox="0 0 24 24"  xmlns="http://www.w3.org/2000/svg">
<path opacity="0.4" d="M19.2102 6.35952C18.1702 4.25952 16.1602 2.70952 13.8302 2.19952C11.3902 1.65952 8.89021 2.23952 6.98021 3.77952C5.06021 5.30952 3.97021 7.59952 3.97021 10.0495C3.97021 12.6395 5.52022 15.3495 7.86021 16.9195V17.7495C7.85021 18.0295 7.84021 18.4595 8.18021 18.8095C8.53021 19.1695 9.05021 19.2095 9.46021 19.2095H14.5902C15.1302 19.2095 15.5402 19.0595 15.8202 18.7795C16.2002 18.3895 16.1902 17.8895 16.1802 17.6195V16.9195C19.2802 14.8295 21.2302 10.4195 19.2102 6.35952Z" />
<path d="M15.2602 22.0004C15.2002 22.0004 15.1302 21.9904 15.0702 21.9704C13.0602 21.4004 10.9502 21.4004 8.94015 21.9704C8.57015 22.0704 8.18015 21.8604 8.08015 21.4904C7.97015 21.1204 8.19015 20.7304 8.56015 20.6304C10.8202 19.9904 13.2002 19.9904 15.4602 20.6304C15.8302 20.7404 16.0502 21.1204 15.9402 21.4904C15.8402 21.8004 15.5602 22.0004 15.2602 22.0004Z" />
<path d="M11.9999 13.8499C11.8699 13.8499 11.7399 13.8199 11.6299 13.7499C11.2699 13.5399 11.1499 13.0799 11.3499 12.7299L12.1999 11.2499H11.3599C10.8599 11.2499 10.4499 11.0299 10.2299 10.6599C10.0099 10.2799 10.0299 9.8199 10.2799 9.3799L11.3499 7.5199C11.5599 7.1599 12.0199 7.0399 12.3699 7.2399C12.7299 7.4499 12.8499 7.9099 12.6499 8.2599L11.7999 9.7499H12.6399C13.1399 9.7499 13.5499 9.9699 13.7699 10.3399C13.9899 10.7199 13.9699 11.1799 13.7199 11.6199L12.6499 13.4799C12.5099 13.7199 12.2599 13.8499 11.9999 13.8499Z" />
</svg>

<?xml version="1.0" encoding="UTF-8"?>
<svg width="24" height="24" viewBox="0 0 24 24" xmlns="http://www.w3.org/2000/svg">
 <path d="m19.21 6.3595c-1.04-2.1-3.05-3.65-5.38-4.16-2.44-0.54-4.94 0.04-6.85 1.58-1.92 1.53-3.01 3.82-3.01 6.27 0 2.59 1.55 5.3 3.89 6.87v0.83c-0.01 0.28-0.02 0.71 0.32 1.06 0.35 0.36 0.87 0.4 1.28 0.4h5.13c0.54 0 0.95-0.15 1.23-0.43 0.38-0.39 0.37-0.89 0.36-1.16v-0.7c3.1-2.09 5.05-6.5 3.03-10.56z" opacity=".4"/>
 <path d="m15.26 22c-0.06 0-0.13-0.01-0.19-0.03-2.01-0.57-4.12-0.57-6.13 0-0.37 0.1-0.76-0.11-0.86-0.48-0.11-0.37 0.11-0.76 0.48-0.86 2.26-0.64 4.64-0.64 6.9 0 0.37 0.11 0.59 0.49 0.48 0.86-0.1 0.31-0.38 0.51-0.68 0.51z"/>
 <path d="m12 13.85c-0.13 0-0.26-0.03-0.37-0.1-0.36-0.21-0.48-0.67-0.28-1.02l0.85-1.48h-0.84c-0.5 0-0.91-0.22-1.13-0.59-0.22-0.38-0.2-0.84 0.05-1.28l1.07-1.86c0.21-0.36 0.67-0.48 1.02-0.28 0.36 0.21 0.48 0.67 0.28 1.02l-0.85 1.49h0.84c0.5 0 0.91 0.22 1.13 0.59 0.22 0.38 0.2 0.84-0.05 1.28l-1.07 1.86c-0.14 0.24-0.39 0.37-0.65 0.37z"/>
</svg>
